web/ui/src/components/theme/workflow/svgs/zoom-out.svg

<?xml version="1.0" encoding="UTF-8"?>
<svg width="24px" height="24px" viewBox="0 0 24 24" version="1.1" xmlns="http://www.w3.org/2000/svg" xmlns:xlink="http://www.w3.org/1999/xlink">
    <title>加备份</title>
    <g id="页面-1" stroke="none" stroke-width="1" fill="none" fill-rule="evenodd">
        <g id="建木CI-图形编辑器-工具栏（初始页）" transform="translate(-1244.000000, -20.000000)">
            <g id="编组-10" transform="translate(1.000000, 0.000000)">
                <g id="加备份" transform="translate(1243.000000, 20.000000)" fill-rule="nonzero">
                    <rect id="矩形" fill="#000000" opacity="0" x="0" y="0" width="24" height="24"></rect>
                    <path d="M12.5846094,12.5180137 L11.2721094,12.5180137 L6.56094531,12.5180137 C6.19850391,12.5180137 5.90469531,12.2242051 5.90469531,11.8617637 C5.90469531,11.4993223 6.19850391,11.2055137 6.56094531,11.2055137 L11.2721094,11.2055137 L12.5846094,11.2055137 L17.3207383,11.2055137 C17.6831797,11.2055137 17.9769883,11.4993223 17.9769883,11.8617637 C17.9769883,12.2242051 17.6831797,12.5180137 17.3207383,12.5180137 L12.5846094,12.5180137 Z" id="路径" fill="#526579"></path>
                </g>
            </g>
        </g>
    </g>
</svg>

<svg height="24" viewBox="0 0 24 24" width="24" xmlns="http://www.w3.org/2000/svg"><g fill="none"><path d="m0 0h24v24h-24z" fill="#000" opacity="0"/><path d="m12.5846094 12.5180137h-1.3125-4.71116409c-.3624414 0-.65625-.2938086-.65625-.65625s.2938086-.65625.65625-.65625h4.71116409 1.3125 4.7361289c.3624414 0 .65625.2938086.65625.65625s-.2938086.65625-.65625.65625z" fill="#526579"/></g></svg>
